-----BEGIN PGP SIGNATURE-----

iQJPBAABCAA5FiEEjWnHCkKRkxfy/h2n36uP7SoWuI0FAml5gNMbFIAAAAAABAAO
bWFudTIsMi41KzEuMTEsMiwxAAoJEN+rj+0qFriNWaIQAJjnfahilHxSdNoqQVhQ
VXLET2J0VMc6vic3mksr1LdOdM8z4rtmEyrK31kC2L3U05tth9wau/05q+Hq+3Ik
xo0w1OaCaEyzlUy2lpiS0JHTJWhoW9wcMcX4zS1q62qmOg3+f4xxcWm/3E4ZC9Tc
2R+qHTTGdVSfvT5Ic2YEokjsZw0+xd3o60ceVZEIIHz8Hi0KqkagoYllb/Zw1f6A
ceUqgIkSUauRpX1IOZbbQjgISrJUpJHttLtX49VkTv1WCB2AKqSB79MB8NVXAxoV
7It8Awwv86l/qk+qyjPRKGRaepNHaUO7PnX/AkVLfZrpsXL+rxpMxZ7ebxv4tO9G
cF8p8hY470lBLmiduzAG7biWXlOv1/Uo2tzHyYe6Og8BX0iHY229A/dw13FfeAeV
TRv+fpShHduQA225K131ZFUfJLlvY7thLypNfSpXl7fFZCHR0g+LHOClcy/fHI6k
ZwQt7Fz+7+ZbHvd8yNQetfaNxuFKIuPmT5rmw33O7djpkibiOprOWNEnqQ95YSvc
2SWHcoKV51LMaHTYiv2nm31i2WIwiufKJvXmOp/gUoKGeFGRwmOfE5gLf6o75+lM
vC0QJhGC0wzk13s/8kyIPeq+rTgwbfRJRqboqyKlO770Tmp2htNcn4gpbVhaSDP8
ksjxDnYegrd+YzJzOkINye10
=Gvh0
-----END PGP SIGNATURE-----
