-----BEGIN PGP SIGNATURE-----

iQJPBAABCAA5FiEEjWnHCkKRkxfy/h2n36uP7SoWuI0FAml5gNQbFIAAAAAABAAO
bWFudTIsMi41KzEuMTEsMiwxAAoJEN+rj+0qFriNFmAQAI8AVt9RluQ+SEAxmLUb
51ehFxL/0FtzUGEaOHfR+TOZMhN2v4xyzOGpeyUNe7+nVFGgC/W7nMgUwKJ8HxYF
uufgNjebcwLD3/7Sv9R0zY9pf8Ibo8Bs/NjHTzLQQtvn85VMXKHK4f5OqXLXo7yc
ka+kvQUJL99cWdJ0rZfQrsQwFIj1KHidmWJE5l7vPcfxfvt22gj4193QnDRyjkXk
/HwKob+8MnzWc8KVXq+gWtCJwH/FoJex89VKkRvFhuW3pjAtDjlliLXPMPjCmwci
rsMojh73IJXuOTSskitaUCMWeeMeuXJhUNi02T4nvgEnBR9pZQUQEDVwvvo/1KSj
xPGS1/3jh4PgKoSYESryZwz2qSGeSEWVXQR7PDokik+MogMD/dDRCrwrGW1Jh8Uq
9Jt7qkYyJXPElfOvu8jNSAgFgtM+YgAePkzKrhf6gdQnLKbxzGvC/TOdp3Dh+zcu
GWOTYm3q2kDUnepN1SOsvWzIvYd1h+u0F8Jsf5YJs6tOhpstd5Is3dLdluNEGuin
ytiDgDOfTxrmO1YcWHP7VG1FoMa1zA2RSQim7pLwReZBgj2YUUUekhrTD5O9XJHe
Fpb2i+0Xx4XG2HBimyoXgpCidybZN1dvC5sFVyMhHtLaByG/p1y81iMBClHlkAsT
84Ohd5fXwyLNk8t3lutX8vtk
=1vH7
-----END PGP SIGNATURE-----
